src/images/icons/icon.svg

<svg width="160" height="160" viewBox="0 0 160 160" fill="none" xmlns="http://www.w3.org/2000/svg">
<path d="M160 80C160 124.183 124.183 160 80 160C35.8172 160 0 124.183 0 80C0 35.8172 35.8172 0 80 0C124.183 0 160 35.8172 160 80Z" fill="black"/>
<path fill-rule="evenodd" clip-rule="evenodd" d="M83.9623 39.5506V40.1124C83.4017 42.3595 82.841 44.0449 82.2803 45.1685L77.795 61.4607H67.1423L79.477 45.1685C80.0377 44.0449 81.159 43.4832 81.7197 42.3596C82.841 41.236 83.4017 40.6742 83.9623 39.5506ZM82.2803 31.1236L58.1715 62.0225L55.9289 72.1348H75.5523L72.7489 84.4944H82.841L85.6444 72.1348H91.8117L94.0544 62.0225H87.887L95.1757 31.1236H82.2803ZM112.556 46.2921L81.7197 108.09H88.4477L119.285 46.2921H112.556ZM113.117 76.6292L110.314 88.9888H129.937L103.025 130H115.921L148.439 78.3146L149 76.6292H113.117ZM56.4895 46.2921C57.0502 41.7977 55.9289 37.8652 53.1255 34.4944C50.3222 31.6854 46.9581 30 41.9121 30C36.8661 30 32.3808 31.6854 29.0167 35.0562C25.6527 38.427 23.41 43.4831 22.2887 49.6629H32.9414C33.5021 46.8539 34.0628 45.1685 35.1841 43.4831C36.3054 41.7977 37.9874 41.236 39.6694 41.236C41.3514 41.236 42.4728 41.7977 43.0335 42.9213C43.5942 44.0449 44.1548 45.1685 44.1548 46.8539C44.1548 48.5393 43.5941 49.6629 42.4728 51.9101C41.3514 53.5955 39.6694 55.8427 36.8661 59.2135L15 85.0562H48.6402L51.4435 73.2584H41.9121C41.3514 73.2584 40.7908 73.2584 40.2301 73.2584C39.1088 73.2584 38.5481 73.2584 37.4268 73.2584L44.1548 66.5169C48.0795 62.5843 50.8828 59.2135 53.1255 55.8427C54.8075 53.0337 55.9288 49.6629 56.4895 46.2921Z" fill="#FFD300"/>
</svg>

<svg width="160" height="160" fill="none" xmlns="http://www.w3.org/2000/svg">
  <path d="M160 80A80 80 0 1 1 0 80a80 80 0 0 1 160 0Z" fill="#000"/>
  <path fill-rule="evenodd" clip-rule="evenodd" d="M83.96 39.55v.56a26.15 26.15 0 0 1-1.68 5.06l-4.48 16.3H67.14l12.34-16.3c.56-1.13 1.68-1.69 2.24-2.81 1.12-1.12 1.68-1.69 2.24-2.8Zm-1.68-8.43-24.1 30.9-2.25 10.11h19.62l-2.8 12.36h10.1l2.8-12.36h6.16l2.24-10.1H87.9l7.29-30.9h-12.9Zm30.28 15.17-30.84 61.8h6.73l30.83-61.8h-6.72Zm.56 30.34-2.8 12.36h19.62L103.03 130h12.9l32.5-51.69.57-1.68h-35.88ZM56.49 46.29c.56-4.5-.56-8.42-3.36-11.8C50.33 31.7 46.96 30 41.9 30c-5.04 0-9.53 1.69-12.9 5.06-3.36 3.37-5.6 8.42-6.72 14.6h10.65c.56-2.8 1.12-4.5 2.24-6.18a5.1 5.1 0 0 1 4.49-2.24c1.68 0 2.8.56 3.36 1.68a8.13 8.13 0 0 1 1.12 3.93c0 1.69-.56 2.81-1.68 5.06a88.47 88.47 0 0 1-5.6 7.3L15 85.06h33.64l2.8-11.8H37.43l6.72-6.74a69.68 69.68 0 0 0 8.98-10.68 27.7 27.7 0 0 0 3.36-9.55Z" fill="#FFD300"/>
</svg>
